public/images/mood/mood9-mouth-2.svg

<svg preserveAspectRatio="none" width="100%" height="100%" overflow="visible" style="display: block;" viewBox="0 0 17.0001 4.20182" fill="none" xmlns="http://www.w3.org/2000/svg">
<path id="Vector 48" d="M1.00019 3.20163C2.99676 2.80794 4.99334 2.41425 6.28902 2.12708C7.58471 1.83991 8.119 1.67118 8.45049 1.51396C8.78197 1.35674 8.89445 1.21614 8.71337 1.14371C8.53229 1.07127 8.05424 1.07127 7.02059 1.21188C5.98694 1.35248 4.41218 1.63369 4.33207 1.62389C4.25197 1.61409 5.71425 1.30476 7.26899 1.14541C8.82373 0.98606 10.4266 0.98606 11.4211 1.01418C13.4533 1.07165 14.7981 1.60983 15.4849 1.83735C15.7255 1.91704 15.9119 2.12112 15.9975 2.31967C16.0628 2.47098 14.8152 2.54804 13.2251 2.57659C12.6474 2.58696 12.5348 2.54889 10.8599 2.53441C9.18503 2.51992 5.95115 2.51992 4.27115 2.47774C2.59114 2.43556 2.56302 2.35119 2.60478 2.23743C3.07175 1.6976 3.61201 1.35589 3.88129 1.25662C4.00996 1.21358 4.12245 1.18546 4.32355 1.15649" stroke="var(--stroke-0, #B08144)" stroke-width="2" stroke-linecap="round"/>
</svg>

<svg xmlns="http://www.w3.org/2000/svg" fill="none" overflow="visible" preserveAspectRatio="none" style="display:block" viewBox="0 0 17 4.202"><path stroke="var(--stroke-0, #b08144)" stroke-linecap="round" stroke-width="2" d="M1 3.202c1.997-.394 3.993-.788 5.289-1.075s1.83-.456 2.161-.613c.332-.157.444-.298.263-.37-.18-.073-.659-.073-1.692.068-1.034.14-2.609.422-2.689.412s1.382-.32 2.937-.479 3.158-.159 4.152-.13c2.032.057 3.377.595 4.064.822.24.08.427.284.513.483.065.151-1.183.228-2.773.257-.578.01-.69-.028-2.365-.043s-4.91-.014-6.59-.056-1.708-.127-1.666-.24c.467-.54 1.007-.882 1.276-.981.129-.043.241-.072.443-.1"/></svg>
